polaris-icons/icons/new-icons/BackspaceMajor.svg

<svg width="20" height="20" viewBox="0 0 20 20" fill="none" xmlns="http://www.w3.org/2000/svg">
<path d="M14.0303 7.46967C14.3232 7.76256 14.3232 8.23744 14.0303 8.53033L12.5607 10L14.0303 11.4697C14.3232 11.7626 14.3232 12.2374 14.0303 12.5303C13.7374 12.8232 13.2626 12.8232 12.9697 12.5303L11.5 11.0607L10.0303 12.5303C9.73744 12.8232 9.26256 12.8232 8.96967 12.5303C8.67678 12.2374 8.67678 11.7626 8.96967 11.4697L10.4393 10L8.96967 8.53033C8.67678 8.23744 8.67678 7.76256 8.96967 7.46967C9.26256 7.17678 9.73744 7.17678 10.0303 7.46967L11.5 8.93934L12.9697 7.46967C13.2626 7.17678 13.7374 7.17678 14.0303 7.46967Z" fill="#4A4A4A"/>
<path fill-rule="evenodd" clip-rule="evenodd" d="M5.5531 5.08338C6.07324 4.4007 6.88228 4 7.74053 4H14.25C15.7688 4 17 5.23122 17 6.75V13.25C17 14.7688 15.7688 16 14.25 16H7.74053C6.88228 16 6.07324 15.5993 5.5531 14.9166L3.07691 11.6666C2.32682 10.6821 2.32682 9.31787 3.07691 8.33338L5.5531 5.08338ZM7.74053 5.5C7.35042 5.5 6.98267 5.68214 6.74624 5.99245L4.27005 9.24245C3.92911 9.68994 3.92911 10.3101 4.27005 10.7576L6.74624 14.0076C6.98267 14.3179 7.35042 14.5 7.74053 14.5H14.25C14.9403 14.5 15.5 13.9404 15.5 13.25V6.75C15.5 6.05964 14.9403 5.5 14.25 5.5H7.74053Z" fill="#4A4A4A"/>
</svg>

<svg viewBox="0 0 20 20" xmlns="http://www.w3.org/2000/svg"><path d="M14.03 7.47a.75.75 0 0 1 0 1.06l-1.47 1.47 1.47 1.47a.75.75 0 1 1-1.06 1.06l-1.47-1.47-1.47 1.47a.75.75 0 1 1-1.06-1.06l1.47-1.47-1.47-1.47a.75.75 0 0 1 1.06-1.06l1.47 1.47 1.47-1.47a.75.75 0 0 1 1.06 0Z" fill="#5C5F62"/><path fill-rule="evenodd" d="M5.553 5.083a2.75 2.75 0 0 1 2.188-1.083h6.509a2.75 2.75 0 0 1 2.75 2.75v6.5a2.75 2.75 0 0 1-2.75 2.75h-6.51a2.75 2.75 0 0 1-2.187-1.083l-2.476-3.25a2.75 2.75 0 0 1 0-3.334l2.476-3.25Zm2.188.417c-.39 0-.758.182-.995.492l-2.476 3.25a1.25 1.25 0 0 0 0 1.516l2.476 3.25c.237.31.604.492.995.492h6.509c.69 0 1.25-.56 1.25-1.25v-6.5c0-.69-.56-1.25-1.25-1.25h-6.51Z" fill="#5C5F62"/></svg>
